icon-themes/breeze_svg/cmd/lc_beforeobject.svg

<svg viewBox="0 0 24 24" xmlns="http://www.w3.org/2000/svg"><path d="m4 4v1h16v-1zm8 2-.21875.21875-3.28125 3.1875.71875.71875 2.28125-2.21875v7.09375h1v-7.09375l2.28125 2.21875.71875-.71875-3.28125-3.1875zm-8 9v1 3 1h4v-1h-3v-3h3v-1zm12 0v1h3v3h-3v1h4v-1-3-1zm-9 2v1h10v-1z" fill="#4d4d4d"/></svg>

<svg xmlns="http://www.w3.org/2000/svg" viewBox="0 0 24 24">
 <path 
     style="fill:#4d4d4d" 
     d="M 4 4 L 4 5 L 20 5 L 20 4 L 4 4 z M 12 6 L 11.78125 6.21875 L 8.5 9.40625 L 9.21875 10.125 L 11.5 7.90625 L 11.5 15 L 12.5 15 L 12.5 7.90625 L 14.78125 10.125 L 15.5 9.40625 L 12.21875 6.21875 L 12 6 z M 4 15 L 4 16 L 4 19 L 4 20 L 8 20 L 8 19 L 5 19 L 5 16 L 8 16 L 8 15 L 4 15 z M 16 15 L 16 16 L 19 16 L 19 19 L 16 19 L 16 20 L 20 20 L 20 19 L 20 16 L 20 15 L 16 15 z M 7 17 L 7 18 L 17 18 L 17 17 L 7 17 z "
     />
 </svg>
